X: 1
T: Father Kelly's
C: Father P.J. Kelly
Z: Mark de Jong
S: https://thesession.org/tunes/791#setting791
R: reel
M: 4/4
L: 1/8
K: Dmaj
|:f2 df edBd|Addc defa|g2 ef gfed|Beed efge|
f2 df edBd|Addc defg|a2 fa a2 fa|gece d4:|
|:a2 fa dafa|a2 fa dafa|fBBB edcB|ABcd edcB|
a2 fa dafa|a2fa dafa|g2 eg f2 df|edce d4:|

